X:1
T:ຮັກນ້ອງແທ້
T:ເນື້ອຮ້ອງ & ທຳນອງ : ຄຳຫຼ້າ ໜໍ່ແກ້ວ ນັກຮ້ອງຕົ້ນສະບັບ : ຈັນທະຣາ ອຸເທນສັກດາ
T:1960
T:© studiodavong
C:Khamla NOKEO
Z:© studiodavong
L:1/8
Q:1/4=120
M:4/4
K:Bb
V:1 treble nm="Piano" snm="Pno."
V:1
"^Cha Cha Cha" z4"^(Sax) _____________________________________________________________________________________________" z FGB || %1
w: |
"Bb" !>!DD/C/ B,C !>!D z F z |"Gm" !>!G2 z c/B/ GFDF |"Eb" !>!GFGB"F" cBdc | %4
w: |||
"Bb" !>!B2 z B"F" .c.B.B.B ||S"Bb" !>!B z !>![B,DFBd] z z F(GB) ||"Bb""^A"{B} D3 F G2{G} B{G}B- | %7
w: |* * ບໍ່ ເຫັນ- *|ນ້ອງ ມັນ ເປັນ ເຫງົາ ໆ|
 B4 z F(GF) |"Gm" D3 C (DB,)CD- |"Dm" D4 z2 GB |"Gm" d3 B c3 B |"Cm" c6 cB |"Eb" G3 B G3 B | %13
w: _ ບໍ່ ພົບ- *|ເຈົ້າ ເສົ້າ ໆ- * ຊຶມ ໆ|_ ຈະ ຢູ່|ໃສ ບໍ່ ລືມ ບໍ່|ລືມ ຮັກ ຂຶ້ນ|ຕື່ມ ທຸກ ວັນ ທຸກ|
"F" F4 z F((GB)) ||"Bb""^B"{B} D3 F G2 B{G}B- | B4 z B(GF) |"Gm" D3 C (DB,)CD- |"Dm" D4 z2{B} GB | %18
w: ວັນ... ບໍ່ ເຫັນ- *|ໜ້າ ຍິ່ງ ພາ ໃຫ້ ໝອງ|_ ຢ້ານ ນວນ- *|ນ້ອງ ລອຍ ລ່ອງ- * ເຫ ຫັນ|_ ຢ້ານ ທີ່|
"Gm" d3 B G2 d2 |"Cm" c4 z dcB |"Eb" G3 F"F"{B} G2 BB- |"Bb" B4"Bb7" z2 BB || %22
w: ຮັກ ຈະ ຫັກ ສັມ|ພັນ ແມ່ນ ຮັກ ສະ|ບັ້ນ ຈະ ກັ້ນ ໃຈ ຕາຍ...|_ ຮັກ ນ້ອງ|
"Eb""^C" B3 F (FE)(CD) | E4 z CDE |"F" F2 B2 D2 E2 |"Bb" F4 z B(GF) |"Gm" B3 F (BG)Bc- | %27
w: ແທ້ ບໍ່ ແປ- * ປ່ຽນ- *|ແປງ ຢ່າ ຫວາດ ຣະ|ແວງ ອ້າຍ ຈະ ປ່ຽນ|ໃຈ ຂໍ ພຽງ- *|ນ້ອງ ຢ່າ ລ່ອງ- * ລອຍ ໄປ|
"Cm" c4 z FGB |"F" c3 G"Eb" B2 (GB) |"F" F4 z F((GB)) ||"Bb"{B} D3 F{B} G2 BB-"^D" | B4 z B(GF) | %32
w: _ ປ່ຽນ ອົກ ປ່ຽນ|ໃຈ ປ່ຽນ ຊາຍ ໝາຍ- *|ປອງ... ຢາກ ພົບ- *|ເຈົ້າ ຢາກ ເວົ້າ ລົມ ນຳ|_ ເຊົ້າ ສວາຍ- *|
"Gm" D3 C (DB,)CD- |"Dm" D4 z2 GB |"Gm" d3 B G2 (Bd) |"Cm" c4 z d(cB) | %36
w: ຄໍ່າ ຢາກ ລໍ່າ- * ແລ ນ້ອງ|_ ຢາກ ເຊີຍ|ຊິດ ສ ນິດ ເນື້ອ- *|ທອງ ສຽງ ເພງ- *|
"Eb" G2 F(B"F" G)B(cd)!dacoda! ||"Bb""F" B8 || %38
w: ກ້ອງ ໂປຣດ ນ້ອງ- * ຈົ່ງ ເຫັນ- *|ໃຈ...|
"^E""_(Solo Sax) _______________________________________ _ _ _" z2 B,C D2 F2 ||"Bb" B8 | %40
w: ||
 z BGF GFDG |"Gm" F8 | z FDF DFGB |"Eb" G3 B G2 F2 |"Bb" D>C DF"Gm" DCDB, |"Cm" C8 | %46
w: ||||||
"F""_(Solo Mandolin) _____________________________________ _ _ _" z BGF B2 c2 |"Bb" (d4 f2) B2 | %48
w: ||
"Bb7" c d2 f cdcB |"Eb" G4- GFGB |"Bb" DCB,C D2 F2 |"Gm" G3 B GFDF |"Eb" GFGB"F" cBdc | %53
w: |||||
"Bb" B z z B cBBB!D.S.! ||O"Bb""^F" B4"Gm" z d(cB) |"Eb" G2 F(B"F" G)B(cd) |"Bb" B4"Gm" z d(cB) | %57
w: |ໃຈ... ສຽງ ເພງ- *|ກ້ອງ ໂປຣດ ນ້ອງ- * ຈົ່ງ ເຫັນ- *|ໃຈ... ສຽງ ເພງ- *|
"Eb" G2 F(B"F" G)B(cd) |"Bb" B4 z B{B}G!>!B | !>!B2 .[FBd].[FBd] !>![FBd] z z2!fine! |] %60
w: ກ້ອງ ໂປຣດ ນ້ອງ- * ຈົ່ງ ເຫັນ- *|ໃຈ... ຮັກ ນ້ອງ ແທ້|ໆ! * * *|

